;FLAVOR:Marlin
;TIME:8655
;Filament used: 4.79074m
;Layer height: 0.2
;MINX:97.144
;MINY:97.198
;MINZ:0.2
;MAXX:202.483
;MAXY:188.968
;MAXZ:12.6
;Generated with Cura_SteamEngine 5.0.0
M140 S65
M105
M190 S65
M104 S210
M105
M109 S210
M82 ;absolute extrusion mode
G28 ; home all axes
M117 Purge extruder
G92 E0 ; reset extruder
G1 Z1.0 F3000 ; move z up little to prevent scratching of surface
G1 X2 Y20 Z0.3 F5000.0 ; move to start-line position
G1 X2 Y200.0 Z0.3 F1500.0 E15 ; draw 1st line
G1 X2 Y200.0 Z0.4 F5000.0 ; move to side a little
G1 X2 Y20 Z0.4 F1500.0 E30 ; draw 2nd line
G92 E0 ; reset extruder
G1 Z1.0 F3000 ; move z up little to prevent scratching of surface
; START_PRINT
G92 E0
G92 E0
G1 F2100 E-0.5
;LAYER_COUNT:63
;LAYER:0
M107
G1 F300 Z0.7
G0 F6000 X118.104 Y100.988 Z0.7
G1 F300 Z0.7
G0 F6000 X116.39 Y103.784
;TYPE:SKIRT
G1 F300 Z0.2
G1 F2100 E0
G1 F600 X116.612 Y103.313 E0.02305
G1 X117.042 Y102.496 E0.06392
G1 X117.54 Y101.719 E0.10478
G1 X118.104 Y100.988 E0.14565
G1 X118.729 Y100.308 E0.18654
G1 X119.411 Y99.685 E0.22743
G1 X120.144 Y99.124 E0.26829
G1 X120.922 Y98.628 E0.30914
G1 X121.741 Y98.201 E0.35003
G1 X122.594 Y97.847 E0.39091
G1 X123.474 Y97.567 E0.43179
G1 X124.374 Y97.365 E0.47263
G1 X125.289 Y97.242 E0.5135
G1 X126.212 Y97.198 E0.5544
G1 X127.134 Y97.234 E0.59525
G1 X128.05 Y97.35 E0.63613
G1 X128.953 Y97.545 E0.67702
G1 X129.835 Y97.817 E0.71788
G1 X130.393 Y98.034 E0.74439
G1 X130.98 Y98.285 E0.77265
G1 X195.718 Y127.583 E3.91838
G1 X196.329 Y127.868 E3.94822
G1 X197.148 Y128.294 E3.98909
G1 X197.927 Y128.79 E4.02997
G1 X198.661 Y129.351 E4.07087
G1 X199.343 Y129.973 E4.11173
G1 X199.968 Y130.652 E4.15259
G1 X200.533 Y131.383 E4.19349
G1 X201.032 Y132.159 E4.23433
G1 X201.462 Y132.976 E4.2752
G1 X201.82 Y133.827 E4.31607
G1 X202.103 Y134.706 E4.35695
G1 X202.308 Y135.606 E4.39782
G1 X202.435 Y136.521 E4.43871
G1 X202.483 Y137.443 E4.47958
G1 X202.45 Y138.366 E4.52047
G1 X202.338 Y139.282 E4.56132
G1 X202.147 Y140.185 E4.60218
G1 X201.878 Y141.069 E4.64309
G1 X201.633 Y141.7 E4.67305
G1 X201.143 Y142.846 E4.72823
G1 X183.324 Y182.214 E6.64123
G1 X183.042 Y182.818 E6.67074
G1 X182.616 Y183.637 E6.71161
G1 X182.12 Y184.415 E6.75245
G1 X181.559 Y185.149 E6.79335
G1 X180.936 Y185.83 E6.83421
G1 X180.257 Y186.456 E6.87509
G1 X179.526 Y187.02 E6.91597
G1 X178.749 Y187.519 E6.95685
G1 X177.932 Y187.949 E6.99772
G1 X177.081 Y188.306 E7.03857
G1 X176.202 Y188.589 E7.07945
G1 X175.302 Y188.794 E7.12031
G1 X174.387 Y188.921 E7.16121
G1 X173.465 Y188.968 E7.20208
G1 X172.543 Y188.935 E7.24292
G1 X171.626 Y188.822 E7.28382
G1 X170.723 Y188.631 E7.32468
G1 X169.84 Y188.362 E7.36555
G1 X169.297 Y188.154 E7.39129
G1 X168.682 Y187.893 E7.42086
G1 X103.895 Y158.57 E10.56902
G1 X103.275 Y158.279 E10.59934
G1 X102.457 Y157.851 E10.64021
G1 X101.679 Y157.354 E10.68108
G1 X100.947 Y156.791 E10.72196
G1 X100.266 Y156.167 E10.76285
G1 X99.642 Y155.486 E10.80374
G1 X99.08 Y154.755 E10.84456
G1 X98.582 Y153.977 E10.88545
G1 X98.154 Y153.159 E10.92632
G1 X97.798 Y152.307 E10.9672
G1 X97.518 Y151.427 E11.00808
G1 X97.314 Y150.527 E11.04894
G1 X97.189 Y149.612 E11.08982
G1 X97.144 Y148.69 E11.13068
G1 X97.179 Y147.767 E11.17157
G1 X97.293 Y146.851 E11.21244
G1 X97.487 Y145.948 E11.25332
G1 X97.757 Y145.065 E11.2942
G1 X97.975 Y144.504 E11.32084
G1 X98.22 Y143.929 E11.34851
G1 X116.39 Y103.784 E13.29926
G0 F6000 X116.788 Y103.972
G1 F600 X117.01 Y103.501 E13.32231
G1 X117.432 Y102.701 E13.36235
G1 X117.922 Y101.941 E13.40238
G1 X118.477 Y101.228 E13.44238
G1 X119.094 Y100.567 E13.48241
G1 X119.766 Y99.962 E13.52244
G1 X120.489 Y99.42 E13.56244
G1 X121.257 Y98.943 E13.60247
G1 X122.065 Y98.537 E13.6425
G1 X122.905 Y98.203 E13.68251
G1 X123.771 Y97.944 E13.72253
G1 X124.657 Y97.764 E13.76255
G1 X125.555 Y97.662 E13.80256
G1 X126.459 Y97.64 E13.84259
G1 X127.361 Y97.698 E13.88261
G1 X128.254 Y97.835 E13.9226
G1 X129.132 Y98.051 E13.96263
G1 X130.222 Y98.439 E14.01385
G1 X130.799 Y98.686 E14.04163
G1 X195.532 Y127.982 E17.18712
G1 X196.143 Y128.267 E17.21697
G1 X196.945 Y128.685 E17.25701
G1 X197.706 Y129.172 E17.297
G1 X198.422 Y129.725 E17.33705
G1 X199.086 Y130.338 E17.37706
G1 X199.693 Y131.008 E17.41708
G1 X200.238 Y131.729 E17.45709
G1 X200.718 Y132.496 E17.49715
G1 X201.128 Y133.301 E17.53714
G1 X201.465 Y134.14 E17.57717
G1 X201.726 Y135.005 E17.61717
G1 X201.911 Y135.89 E17.65719
G1 X202.016 Y136.788 E17.69722
G1 X202.042 Y137.692 E17.73725
G1 X201.987 Y138.594 E17.77726
G1 X201.853 Y139.488 E17.81728
G1 X201.641 Y140.367 E17.8573
G1 X201.228 Y141.528 E17.91186
G1 X200.742 Y142.665 E17.96659
G1 X182.925 Y182.028 E19.87936
G1 X182.643 Y182.632 E19.90887
G1 X182.225 Y183.433 E19.94887
G1 X181.738 Y184.194 E19.98886
G1 X181.185 Y184.91 E20.02891
G1 X180.571 Y185.573 E20.06892
G1 X179.901 Y186.18 E20.10894
G1 X179.18 Y186.725 E20.14895
G1 X178.413 Y187.204 E20.18898
G1 X177.607 Y187.614 E20.22901
G1 X176.769 Y187.951 E20.269
G1 X175.903 Y188.212 E20.30904
G1 X175.018 Y188.396 E20.34906
G1 X174.12 Y188.501 E20.38908
G1 X173.217 Y188.527 E20.42907
G1 X172.314 Y188.472 E20.46912
G1 X171.42 Y188.338 E20.50914
G1 X170.542 Y188.125 E20.54914
G1 X169.465 Y187.747 E20.59967
G1 X168.863 Y187.492 E20.62861
G1 X104.082 Y158.172 E23.77647
G1 X103.462 Y157.881 E23.80679
G1 X102.661 Y157.461 E23.84683
G1 X101.901 Y156.972 E23.88684
G1 X101.187 Y156.417 E23.92687
G1 X100.524 Y155.802 E23.9669
G1 X99.919 Y155.131 E24.0069
G1 X99.375 Y154.409 E24.04692
G1 X98.898 Y153.641 E24.08694
G1 X98.489 Y152.835 E24.12696
G1 X98.154 Y151.995 E24.16699
G1 X97.895 Y151.129 E24.207
G1 X97.712 Y150.244 E24.24701
G1 X97.609 Y149.346 E24.28703
G1 X97.586 Y148.442 E24.32706
G1 X97.642 Y147.54 E24.36707
G1 X97.778 Y146.646 E24.4071
G1 X97.993 Y145.768 E24.44711
G1 X98.38 Y144.674 E24.49849
G1 X98.621 Y144.11 E24.52564
G1 X116.788 Y103.972 E26.47605
G1 F2100 E25.97605
G1 F300 Z0.7
;MESH:stand.STL
G0 F6000 X108.085 Y148.523 Z0.7
;TYPE:WALL-OUTER
G1 F300 Z0.2
G1 F2100 E26.47605
G1 F600 X173.275 Y178.028 E29.64378
G1 X191.089 Y138.67 E31.55629
G1 X125.898 Y109.166 E34.72405
G1 X108.085 Y148.523 E36.6365
G1 F2100 E36.1365
G0 F6000 X108.771 Y148.265
G0 X190.403 Y138.928
G1 F2100 E36.6365
G0 F6000 X190.507 Y138.89
;TYPE:WALL-INNER
G1 F600 X126.118 Y109.748 E39.76531
G1 X108.667 Y148.303 E41.6388
G1 X173.055 Y177.446 E44.76758
G1 X190.507 Y138.89 E46.64114
G0 F6000 X189.925 Y139.109
G1 F600 X126.337 Y110.33 E49.73101
G1 X109.249 Y148.084 E51.56558
G1 X172.836 Y176.864 E54.65543
G1 X189.925 Y139.109 E56.49006
G0 F6000 X181.097 Y157.861
;TYPE:SKIN
G1 F600 X189.516 Y139.264 E57.39376
G1 X126.492 Y110.739 E60.45626
G1 X109.658 Y147.929 E62.26344
G1 X172.681 Y176.455 E65.32591
G1 X181.097 Y157.861 E66.22944
G0 F6000 X189.202 Y139.422
G1 F600 X189.097 Y139.317 E66.23601
G0 F6000 X189.008 Y139.85
G1 F600 X187.961 Y138.802 E66.30159
G0 F6000 X186.823 Y138.288
G1 F600 X188.815 Y140.279 E66.42627
G0 F6000 X188.62 Y140.707
G1 F600 X185.686 Y137.773 E66.60996
G0 F6000 X184.55 Y137.259
G1 F600 X188.426 Y141.135 E66.85262
G0 F6000 X188.233 Y141.564
G1 F600 X183.413 Y136.744 E67.15438
G0 F6000 X182.276 Y136.229
G1 F600 X188.039 Y141.992 E67.51518
G0 F6000 X187.845 Y142.42
G1 F600 X181.14 Y135.715 E67.93496
G0 F6000 X180.003 Y135.2
G1 F600 X187.651 Y142.849 E68.4138
G0 F6000 X187.457 Y143.277
G1 F600 X178.866 Y134.686 E68.95165
G0 F6000 X177.729 Y134.172
G1 F600 X187.263 Y143.706 E69.54854
G0 F6000 X187.07 Y144.134
G1 F600 X176.592 Y133.657 E70.20449
G0 F6000 X175.455 Y133.142
G1 F600 X186.875 Y144.562 E70.91945
G0 F6000 X186.681 Y144.99
G1 F600 X174.319 Y132.628 E71.69339
G0 F6000 X173.182 Y132.113
G1 F600 X186.488 Y145.419 E72.52643
G0 F6000 X186.294 Y145.847
G1 F600 X172.045 Y131.598 E73.4185
G0 F6000 X170.909 Y131.084
G1 F600 X186.099 Y146.275 E74.36952
G0 F6000 X185.906 Y146.704
G1 F600 X169.772 Y130.57 E75.37961
G0 F6000 X168.635 Y130.055
G1 F600 X185.712 Y147.132 E76.44874
G0 F6000 X185.518 Y147.561
G1 F600 X167.498 Y129.541 E77.5769
G0 F6000 X166.361 Y129.026
G1 F600 X185.324 Y147.989 E78.7641
G0 F6000 X185.13 Y148.417
G1 F600 X165.224 Y128.511 E80.01034
G0 F6000 X164.088 Y127.997
G1 F600 X184.936 Y148.845 E81.31555
G0 F6000 X184.742 Y149.274
G1 F600 X162.951 Y127.482 E82.67983
G0 F6000 X161.814 Y126.968
G1 F600 X184.549 Y149.702 E84.10315
G0 F6000 X184.355 Y150.131
G1 F600 X160.677 Y126.454 E85.58551
G0 F6000 X159.54 Y125.939
G1 F600 X184.161 Y150.559 E87.12691
G0 F6000 X183.967 Y150.987
G1 F600 X158.403 Y125.424 E88.72734
G0 F6000 X157.267 Y124.91
G1 F600 X183.773 Y151.416 E90.38678
G0 F6000 X183.579 Y151.844
G1 F600 X156.13 Y124.395 E92.10525
G0 F6000 X154.993 Y123.88
G1 F600 X183.385 Y152.272 E93.88277
G0 F6000 X183.191 Y152.701
G1 F600 X153.857 Y123.366 E95.71929
G0 F6000 X152.72 Y122.852
G1 F600 X182.997 Y153.129 E97.61481
G0 F6000 X182.804 Y153.558
G1 F600 X151.583 Y122.337 E99.56944
G0 F6000 X150.446 Y121.822
G1 F600 X182.61 Y153.986 E101.58311
G0 F6000 X182.415 Y154.414
G1 F600 X149.309 Y121.308 E103.65575
G0 F6000 X148.172 Y120.793
G1 F600 X182.222 Y154.842 E105.78745
G0 F6000 X182.028 Y155.271
G1 F600 X147.035 Y120.278 E107.97823
G0 F6000 X145.899 Y119.764
G1 F600 X181.834 Y155.699 E110.22798
G0 F6000 X181.64 Y156.127
G1 F600 X144.762 Y119.25 E112.53674
G0 F6000 X143.625 Y118.735
G1 F600 X181.446 Y156.556 E114.90457
G0 F6000 X181.252 Y156.984
G1 F600 X142.489 Y118.221 E117.33137
G0 F6000 X141.352 Y117.706
G1 F600 X181.058 Y157.413 E119.81724
G0 F6000 X180.865 Y157.841
G1 F600 X140.215 Y117.191 E122.36218
G0 F6000 X139.078 Y116.677
G1 F600 X180.67 Y158.269 E124.9661
G0 F6000 X180.476 Y158.698
G1 F600 X137.941 Y116.162 E127.62908
G0 F6000 X136.804 Y115.648
G1 F600 X180.283 Y159.126 E130.35111
G0 F6000 X180.089 Y159.555
G1 F600 X135.668 Y115.133 E133.13217
G0 F6000 X134.531 Y114.619
G1 F600 X179.895 Y159.982 E135.9722
G0 F6000 X179.701 Y160.411
G1 F600 X133.394 Y114.104 E138.8713
G0 F6000 X132.257 Y113.59
G1 F600 X179.507 Y160.839 E141.82941
G0 F6000 X179.313 Y161.268
G1 F600 X131.12 Y113.075 E144.84659
G0 F6000 X129.983 Y112.56
G1 F600 X179.12 Y161.696 E147.92284
G0 F6000 X178.925 Y162.124
G1 F600 X128.847 Y112.046 E151.05803
G0 F6000 X127.71 Y111.531
G1 F600 X178.731 Y162.553 E154.25229
G0 F6000 X178.538 Y162.981
G1 F600 X126.596 Y111.04 E157.50415
G0 F6000 X126.402 Y111.468
G1 F600 X178.344 Y163.41 E160.75604
G0 F6000 X178.15 Y163.838
G1 F600 X126.208 Y111.896 E164.00793
G0 F6000 X126.014 Y112.325
G1 F600 X177.956 Y164.266 E167.25978
G0 F6000 X177.762 Y164.695
G1 F600 X125.821 Y112.753 E170.51164
G0 F6000 X125.627 Y113.182
G1 F600 X177.568 Y165.123 E173.76347
G0 F6000 X177.374 Y165.552
G1 F600 X125.432 Y113.61 E177.01536
G0 F6000 X125.239 Y114.038
G1 F600 X177.18 Y165.979 E180.26718
G0 F6000 X176.986 Y166.408
G1 F600 X125.045 Y114.467 E183.51901
G0 F6000 X124.851 Y114.895
G1 F600 X176.792 Y166.836 E186.77084
G0 F6000 X176.599 Y167.265
G1 F600 X124.657 Y115.323 E190.02273
G0 F6000 X124.463 Y115.751
G1 F600 X176.405 Y167.693 E193.27462
G0 F6000 X176.211 Y168.121
G1 F600 X124.269 Y116.18 E196.52647
G0 F6000 X124.076 Y116.608
G1 F600 X176.017 Y168.55 E199.77833
G0 F6000 X175.823 Y168.978
G1 F600 X123.882 Y117.037 E203.03016
G0 F6000 X123.687 Y117.465
G1 F600 X175.629 Y169.407 E206.28205
G0 F6000 X175.435 Y169.835
G1 F600 X123.494 Y117.893 E209.5339
G0 F6000 X123.3 Y118.322
G1 F600 X175.241 Y170.263 E212.78573
G0 F6000 X175.047 Y170.692
G1 F600 X123.106 Y118.75 E216.03759
G0 F6000 X122.912 Y119.178
G1 F600 X174.854 Y171.12 E219.28948
G0 F6000 X174.66 Y171.549
G1 F600 X122.718 Y119.607 E222.54137
G0 F6000 X122.524 Y120.035
G1 F600 X174.465 Y171.976 E225.79319
G0 F6000 X174.272 Y172.405
G1 F600 X122.33 Y120.464 E229.04505
G0 F6000 X122.137 Y120.892
G1 F600 X174.078 Y172.833 E232.29688
G0 F6000 X173.884 Y173.262
G1 F600 X121.942 Y121.32 E235.54877
G0 F6000 X121.748 Y121.748
G1 F600 X173.69 Y173.69 E238.80066
G0 F6000 X173.496 Y174.118
G1 F600 X121.555 Y122.177 E242.05248
G0 F6000 X121.361 Y122.605
G1 F600 X173.302 Y174.547 E245.30434
G0 F6000 X173.108 Y174.975
G1 F600 X121.167 Y123.034 E248.55617
G0 F6000 X120.973 Y123.462
G1 F600 X172.915 Y175.404 E251.80806
G0 F6000 X172.72 Y175.832
G1 F600 X120.779 Y123.89 E255.05991
G0 F6000 X120.585 Y124.319
G1 F600 X172.312 Y176.045 E258.29831
G0 F6000 X171.174 Y175.53
G1 F600 X120.392 Y124.747 E261.47761
G0 F6000 X120.197 Y125.175
G1 F600 X170.038 Y175.016 E264.59796
G0 F6000 X168.901 Y174.501
G1 F600 X120.003 Y125.604 E267.65925
G0 F6000 X119.81 Y126.032
G1 F600 X167.764 Y173.987 E270.66149
G0 F6000 X166.628 Y173.473
G1 F600 X119.616 Y126.461 E273.60474
G0 F6000 X119.422 Y126.889
G1 F600 X165.491 Y172.958 E276.48894
G0 F6000 X164.354 Y172.443
G1 F600 X119.228 Y127.317 E279.3141
G0 F6000 X119.034 Y127.745
G1 F600 X163.217 Y171.929 E282.08026
G0 F6000 X162.08 Y171.414
G1 F600 X118.84 Y128.174 E284.78735
G0 F6000 X118.646 Y128.602
G1 F600 X160.943 Y170.899 E287.43541
G0 F6000 X159.807 Y170.385
G1 F600 X118.452 Y129.03 E290.02448
G0 F6000 X118.258 Y129.459
G1 F600 X158.67 Y169.871 E292.55452
G0 F6000 X157.533 Y169.356
G1 F600 X118.064 Y129.887 E295.02553
G0 F6000 X117.871 Y130.316
G1 F600 X156.397 Y168.842 E297.43749
G0 F6000 X155.26 Y168.327
G1 F600 X117.677 Y130.744 E299.79042
G0 F6000 X117.482 Y131.172
G1 F600 X154.123 Y167.812 E302.08434
G0 F6000 X152.986 Y167.298
G1 F600 X117.289 Y131.601 E304.31919
G0 F6000 X117.095 Y132.029
G1 F600 X151.849 Y166.783 E306.49501
G0 F6000 X150.712 Y166.269
G1 F600 X116.901 Y132.458 E308.61178
G0 F6000 X116.707 Y132.886
G1 F600 X149.576 Y165.755 E310.66958
G0 F6000 X148.439 Y165.24
G1 F600 X116.513 Y133.314 E312.66835
G0 F6000 X116.319 Y133.742
G1 F600 X147.302 Y164.725 E314.60808
G0 F6000 X146.166 Y164.211
G1 F600 X116.126 Y134.171 E316.48876
G0 F6000 X115.932 Y134.599
G1 F600 X145.029 Y163.696 E318.31042
G0 F6000 X143.891 Y163.181
G1 F600 X115.737 Y135.027 E320.07303
G0 F6000 X115.544 Y135.456
G1 F600 X142.755 Y162.667 E321.77661
G0 F6000 X141.618 Y162.153
G1 F600 X115.35 Y135.884 E323.42118
G0 F6000 X115.156 Y136.313
G1 F600 X140.481 Y161.638 E325.00668
G0 F6000 X139.345 Y161.124
G1 F600 X114.962 Y136.741 E326.5332
G0 F6000 X114.768 Y137.169
G1 F600 X138.208 Y160.609 E328.00069
G0 F6000 X137.071 Y160.094
G1 F600 X114.574 Y137.598 E329.40911
G0 F6000 X114.38 Y138.026
G1 F600 X135.934 Y159.58 E330.75852
G0 F6000 X134.797 Y159.065
G1 F600 X114.187 Y138.455 E332.04884
G0 F6000 X113.992 Y138.882
G1 F600 X133.66 Y158.551 E333.28021
G0 F6000 X132.523 Y158.036
G1 F600 X113.798 Y139.311 E334.45251
G0 F6000 X113.605 Y139.739
G1 F600 X131.387 Y157.522 E335.5658
G0 F6000 X130.25 Y157.007
G1 F600 X113.411 Y140.168 E336.62003
G0 F6000 X113.217 Y140.596
G1 F600 X129.113 Y156.492 E337.61521
G0 F6000 X127.977 Y155.978
G1 F600 X113.023 Y141.024 E338.55143
G0 F6000 X112.829 Y141.453
G1 F600 X126.84 Y155.463 E339.42857
G0 F6000 X125.703 Y154.949
G1 F600 X112.635 Y141.881 E340.24671
G0 F6000 X112.441 Y142.31
G1 F600 X124.566 Y154.434 E341.00578
G0 F6000 X123.429 Y153.92
G1 F600 X112.247 Y142.737 E341.70587
G0 F6000 X112.053 Y143.166
G1 F600 X122.292 Y153.405 E342.34689
G0 F6000 X121.156 Y152.891
G1 F600 X111.86 Y143.595 E342.92888
G0 F6000 X111.666 Y144.023
G1 F600 X120.019 Y152.376 E343.45183
G0 F6000 X118.882 Y151.861
G1 F600 X111.472 Y144.452 E343.91571
G0 F6000 X111.278 Y144.879
G1 F600 X117.746 Y151.347 E344.32065
G0 F6000 X116.608 Y150.832
G1 F600 X111.084 Y145.308 E344.66648
G0 F6000 X110.89 Y145.736
G1 F600 X115.471 Y150.318 E344.95331
G0 F6000 X114.335 Y149.804
G1 F600 X110.696 Y146.165 E345.18114
G0 F6000 X110.503 Y146.593
G1 F600 X113.198 Y149.289 E345.34989
G0 F6000 X112.061 Y148.774
G1 F600 X110.308 Y147.021 E345.45964
G0 F6000 X110.114 Y147.45
G1 F600 X110.925 Y148.26 E345.51038
G1 F2100 E345.01038
;MESH:NONMESH
G0 F300 X110.925 Y148.26 Z0.4
G0 F6000 X126.047 Y109.562
G1 F2100 E345.51038
G0 F6000 X126.08 Y108.763
;TIME_ELAPSED:798.146597
;LAYER:1
G1 F2100 E345.01038
M106 S25.5
;TYPE:WALL-OUTER
;MESH:stand.STL
G1 F2100 E345.51038
G1 F750 X108.085 Y148.523 E347.26677
G1 X173.275 Y178.028 E350.14653
G1 X191.271 Y138.267 E351.90297
G1 X126.08 Y108.763 E354.78275
