;FLAVOR:Marlin
;TIME:20007
;Filament used: 10.118m
;Layer height: 0.2
;MINX:71.639
;MINY:123.031
;MINZ:0.2
;MAXX:228.361
;MAXY:216.753
;MAXZ:13.6
;ZOFFSETPROCESSED
;Generated with Cura_SteamEngine 5.0.0
M140 S75
M105
M190 S75
M104 S230
M105
M109 S230
M82 ;absolute extrusion mode
G28 ; home all axes
M117 Purge extruder
G92 E0 ; reset extruder
G1 Z1.0 F3000 ; move z up little to prevent scratching of surface
G1 X2 Y20 Z0.3 F5000.0 ; move to start-line position
G1 X2 Y200.0 Z0.3 F1500.0 E15 ; draw 1st line
G1 X2 Y200.0 Z0.4 F5000.0 ; move to side a little
G1 X2 Y20 Z0.4 F1500.0 E30 ; draw 2nd line
G92 E0 ; reset extruder
G1 Z1.0 F3000 ; move z up little to prevent scratching of surface
; START_PRINT
G92 E0
G92 E0
G1 F1500 E-10
;LAYER_COUNT:68
;LAYER:0
M107
M204 S500
G0 F3000 X77.033 Y124.437 Z0.6 ;adjusted by z offset
G92 Z0.2 ;consider this the original z before offset
G0 X71.64 Y134.221
;TYPE:SKIRT
G1 F1500 E0
G1 F300 X71.649 Y133.556 E0.03212
G1 X71.701 Y132.634 E0.07672
G1 X71.833 Y131.72 E0.12131
G1 X72.044 Y130.821 E0.16591
G1 X72.332 Y129.944 E0.21049
G1 X72.694 Y129.095 E0.25506
G1 X73.129 Y128.28 E0.29968
G1 X73.632 Y127.506 E0.34426
G1 X74.2 Y126.779 E0.38881
G1 X74.83 Y126.103 E0.43344
G1 X75.515 Y125.485 E0.47799
G1 X76.251 Y124.928 E0.52257
G1 X77.033 Y124.437 E0.56716
G1 X77.855 Y124.015 E0.61178
G1 X78.709 Y123.666 E0.65634
G1 X79.591 Y123.392 E0.70094
G1 X80.493 Y123.196 E0.74552
G1 X81.409 Y123.078 E0.79012
G1 X82.009 Y123.044 E0.81914
G1 X82.629 Y123.031 E0.84909
G1 X216.994 Y123.031 E7.33808
G1 X217.845 Y123.042 E7.37918
G1 X218.766 Y123.095 E7.42373
G1 X219.68 Y123.228 E7.46834
G1 X220.579 Y123.439 E7.51293
G1 X221.456 Y123.728 E7.55753
G1 X222.305 Y124.091 E7.60212
G1 X223.119 Y124.526 E7.64669
G1 X223.893 Y125.03 E7.69129
G1 X224.62 Y125.599 E7.73588
G1 X225.295 Y126.229 E7.78047
G1 X225.913 Y126.915 E7.82506
G1 X226.469 Y127.651 E7.86961
G1 X226.96 Y128.434 E7.91424
G1 X227.381 Y129.255 E7.9588
G1 X227.729 Y130.11 E8.00338
G1 X228.002 Y130.992 E8.04797
G1 X228.198 Y131.894 E8.09255
G1 X228.315 Y132.81 E8.13714
G1 X228.348 Y133.401 E8.16573
G1 X228.361 Y134.021 E8.19568
G1 X228.36 Y205.489 E11.64713
G1 X228.351 Y206.216 E11.68224
G1 X228.3 Y207.138 E11.72684
G1 X228.169 Y208.052 E11.77143
G1 X227.959 Y208.951 E11.81602
G1 X227.673 Y209.829 E11.86061
G1 X227.311 Y210.678 E11.90518
G1 X226.878 Y211.493 E11.94975
G1 X226.375 Y212.268 E11.99437
G1 X225.808 Y212.996 E12.03894
G1 X225.179 Y213.672 E12.08353
G1 X224.494 Y214.292 E12.12815
G1 X223.759 Y214.849 E12.17268
G1 X222.977 Y215.341 E12.2173
G1 X222.157 Y215.764 E12.26186
G1 X221.302 Y216.114 E12.30648
G1 X220.421 Y216.389 E12.35105
G1 X219.519 Y216.586 E12.39564
G1 X218.603 Y216.705 E12.44025
G1 X217.991 Y216.74 E12.46985
G1 X217.371 Y216.753 E12.4998
G1 X82.869 Y216.752 E18.9954
G1 X82.171 Y216.743 E19.02911
G1 X81.249 Y216.691 E19.07371
G1 X80.335 Y216.56 E19.1183
G1 X79.436 Y216.35 E19.16289
G1 X78.558 Y216.063 E19.2075
G1 X77.709 Y215.701 E19.25207
G1 X76.894 Y215.267 E19.29666
G1 X76.12 Y214.764 E19.34124
G1 X75.392 Y214.196 E19.38583
G1 X74.716 Y213.567 E19.43043
G1 X74.097 Y212.882 E19.47501
G1 X73.54 Y212.146 E19.51959
G1 X73.048 Y211.365 E19.56417
G1 X72.626 Y210.544 E19.60875
G1 X72.276 Y209.689 E19.65336
G1 X72.002 Y208.808 E19.69792
G1 X71.805 Y207.906 E19.74251
G1 X71.687 Y206.99 E19.78711
G1 X71.652 Y206.372 E19.81701
G1 X71.639 Y205.751 E19.847
G1 X71.64 Y134.221 E23.30145
G0 F3000 X72.08 Y134.227
G1 F300 X72.089 Y133.562 E23.33357
G1 X72.141 Y132.659 E23.37725
G1 X72.273 Y131.765 E23.42089
G1 X72.483 Y130.886 E23.46454
G1 X72.77 Y130.028 E23.50823
G1 X73.132 Y129.2 E23.55187
G1 X73.566 Y128.407 E23.59553
G1 X74.067 Y127.655 E23.63917
G1 X74.634 Y126.95 E23.68286
G1 X75.26 Y126.299 E23.72648
G1 X75.942 Y125.705 E23.77016
G1 X76.673 Y125.174 E23.81379
G1 X77.449 Y124.709 E23.85748
G1 X78.262 Y124.315 E23.90111
G1 X79.108 Y123.994 E23.94481
G1 X79.978 Y123.749 E23.98846
G1 X80.866 Y123.582 E24.03209
G1 X82.022 Y123.484 E24.08812
G1 X82.629 Y123.471 E24.11744
G1 X216.994 Y123.471 E30.60643
G1 X217.838 Y123.482 E30.64719
G1 X218.741 Y123.535 E30.69087
G1 X219.635 Y123.667 E30.73452
G1 X220.514 Y123.878 E30.77817
G1 X221.371 Y124.166 E30.82184
G1 X222.199 Y124.529 E30.8655
G1 X222.992 Y124.963 E30.90915
G1 X223.744 Y125.465 E30.95282
G1 X224.448 Y126.032 E30.99647
G1 X225.099 Y126.659 E31.04012
G1 X225.692 Y127.341 E31.08377
G1 X226.223 Y128.073 E31.12744
G1 X226.687 Y128.849 E31.17111
G1 X227.08 Y129.663 E31.21476
G1 X227.4 Y130.508 E31.2584
G1 X227.645 Y131.379 E31.30209
G1 X227.811 Y132.267 E31.34572
G1 X227.908 Y133.414 E31.40131
G1 X227.921 Y134.021 E31.43063
G1 X227.92 Y205.484 E34.88185
G1 X227.911 Y206.211 E34.91696
G1 X227.86 Y207.113 E34.96059
G1 X227.729 Y208.008 E35.00427
G1 X227.52 Y208.887 E35.04791
G1 X227.234 Y209.744 E35.09154
G1 X226.873 Y210.573 E35.1352
G1 X226.441 Y211.367 E35.17886
G1 X225.939 Y212.12 E35.22256
G1 X225.374 Y212.825 E35.26619
G1 X224.748 Y213.477 E35.30985
G1 X224.067 Y214.072 E35.35352
G1 X223.336 Y214.604 E35.39718
G1 X222.562 Y215.069 E35.44079
G1 X221.748 Y215.464 E35.48448
G1 X220.904 Y215.786 E35.52811
G1 X220.034 Y216.032 E35.57177
G1 X219.146 Y216.2 E35.61542
G1 X217.978 Y216.3 E35.67203
G1 X217.371 Y216.313 E35.70135
G1 X82.874 Y216.312 E42.19671
G1 X82.176 Y216.303 E42.23042
G1 X81.274 Y216.252 E42.27405
G1 X80.379 Y216.12 E42.31774
G1 X79.5 Y215.911 E42.36138
G1 X78.643 Y215.624 E42.40502
G1 X77.814 Y215.263 E42.44869
G1 X77.02 Y214.83 E42.49237
G1 X76.268 Y214.328 E42.53603
G1 X75.563 Y213.762 E42.57969
G1 X74.911 Y213.136 E42.62334
G1 X74.317 Y212.455 E42.66699
G1 X73.785 Y211.724 E42.71065
G1 X73.32 Y210.949 E42.7543
G1 X72.925 Y210.136 E42.79795
G1 X72.604 Y209.291 E42.8416
G1 X72.359 Y208.421 E42.88525
G1 X72.191 Y207.532 E42.92894
G1 X72.092 Y206.36 E42.98575
G1 X72.079 Y205.751 E43.01516
G1 X72.08 Y134.227 E46.46932
G1 F1500 E36.46932
;MESH:mini_weather_monitor - front_cover^mini_weather_monitor-1.STL
G0 F3000 X86.199 Y143.925
G0 X86.73 Y145.382
G1 F1500 E46.46932
G0 F3000 X87.481 Y145.382
;TYPE:WALL-OUTER
G1 F300 X87.303 Y145.262 E46.47969
G1 X87.28 Y145.162 E46.48465
G1 X87.28 Y143.924 E46.54443
G1 X87.345 Y143.766 E46.55268
G1 X87.5 Y143.704 E46.56075
G1 X99.948 Y143.704 E47.16191
G1 X100.119 Y143.784 E47.17102
G1 X100.168 Y143.924 E47.17819
G1 X100.168 Y145.162 E47.23797
G1 X100.119 Y145.302 E47.24514
G1 X99.948 Y145.382 E47.25426
G1 X87.481 Y145.382 E47.85633
G0 F3000 X86.73 Y145.382
G0 X86.73 Y148.846
G0 X87.345 Y148.846
G1 F300 X87.5 Y148.784 E47.86439
G1 X99.948 Y148.784 E48.46556
G1 X100.119 Y148.864 E48.47467
G1 X100.168 Y149.004 E48.48184
G1 X100.168 Y150.242 E48.54162
G1 X100.119 Y150.382 E48.54879
G1 X99.948 Y150.462 E48.5579
G1 X87.481 Y150.462 E49.15998
G1 X87.303 Y150.342 E49.17035
G1 X87.28 Y150.242 E49.1753
G1 X87.28 Y149.004 E49.23509
G1 X87.345 Y148.846 E49.24334
G0 F3000 X86.73 Y148.846
G0 X86.73 Y151.386
G0 X87.345 Y151.386
G1 F300 X87.5 Y151.324 E49.25141
G1 X99.948 Y151.324 E49.85257
G1 X100.119 Y151.404 E49.86168
G1 X100.168 Y151.544 E49.86885
G1 X100.168 Y152.782 E49.92863
G1 X100.119 Y152.922 E49.9358
G1 X99.948 Y153.002 E49.94491
G1 X87.481 Y153.002 E50.54699
G1 X87.303 Y152.882 E50.55736
G1 X87.28 Y152.782 E50.56231
G1 X87.28 Y151.544 E50.6221
G1 X87.345 Y151.386 E50.63035
G0 F3000 X87.444 Y150.893
;TYPE:WALL-INNER
G1 F310.6 X89.23 Y150.893 E50.71367
G1 X91.016 Y150.893 E50.79698
G1 F311.3 X92.802 Y150.893 E50.88009
G1 X94.588 Y150.893 E50.96321
G1 F312.1 X96.374 Y150.893 E51.04613
G1 F312.8 X98.16 Y150.893 E51.12885
G1 X99.946 Y150.893 E51.21158
G0 F3000 X100.718 Y150.893
G0 X100.718 Y147.922
G0 X99.948 Y147.922
;TYPE:WALL-OUTER
G1 F300 X87.481 Y147.922 E51.81366
G1 X87.303 Y147.802 E51.82402
G1 X87.28 Y147.702 E51.82898
G1 X87.28 Y146.464 E51.88877
G1 X87.345 Y146.306 E51.89702
G1 X87.5 Y146.244 E51.90508
G1 X99.948 Y146.244 E52.50624
G1 X100.119 Y146.324 E52.51536
G1 X100.168 Y146.464 E52.52252
G1 X100.168 Y147.702 E52.58231
G1 X100.119 Y147.842 E52.58947
G1 X99.948 Y147.922 E52.59859
G0 F3000 X99.948 Y148.353
;TYPE:WALL-INNER
G1 F312.8 X98.162 Y148.353 E52.68131
G1 X96.376 Y148.353 E52.76404
G1 F312.1 X94.59 Y148.353 E52.84696
G1 F311.3 X92.804 Y148.353 E52.93007
G1 X91.018 Y148.353 E53.01319
G1 F310.6 X89.232 Y148.353 E53.0965
G1 X87.446 Y148.353 E53.17981
G0 F3000 X86.73 Y148.353
G0 X86.73 Y145.813
G0 X87.444 Y145.813
G1 F310.6 X89.23 Y145.813 E53.26312
G1 X91.016 Y145.813 E53.34644
G1 F311.3 X92.802 Y145.813 E53.42955
G1 X94.588 Y145.813 E53.51267
G1 F312.1 X96.374 Y145.813 E53.59559
G1 F312.8 X98.16 Y145.813 E53.67831
G1 X99.946 Y145.813 E53.76104
G0 F3000 X100.718 Y145.813
G0 X100.718 Y141.244
G0 X100.119 Y141.244
;TYPE:WALL-OUTER
G1 F300 X100.168 Y141.384 E53.7682
G1 X100.168 Y142.622 E53.82799
G1 X100.119 Y142.762 E53.83515
G1 X99.948 Y142.842 E53.84427
G1 X87.481 Y142.842 E54.44635
G1 X87.303 Y142.722 E54.45671
G1 X87.28 Y142.622 E54.46167
G1 X87.28 Y141.384 E54.52146
G1 X87.345 Y141.226 E54.52971
G1 X87.5 Y141.164 E54.53777
G1 X99.948 Y141.164 E55.13893
G1 X100.119 Y141.244 E55.14805
G0 F3000 X100.718 Y141.244
G0 X100.718 Y143.273
G0 X99.948 Y143.273
;TYPE:WALL-INNER
G1 F312.8 X98.162 Y143.273 E55.23077
G1 X96.376 Y143.273 E55.3135
G1 F312.1 X94.59 Y143.273 E55.39642
G1 F311.3 X92.804 Y143.273 E55.47953
G1 X91.018 Y143.273 E55.56265
G1 F310.6 X89.232 Y143.273 E55.64596
G1 X87.446 Y143.273 E55.72927
G0 F3000 X86.73 Y143.273
G0 X86.802 Y138.146
G0 X100.646 Y138.146
G0 X100.718 Y138.844
G0 X100.168 Y138.844
;TYPE:WALL-OUTER
G1 F300 X100.168 Y140.082 E55.78906
G1 X100.119 Y140.222 E55.79622
G1 X99.948 Y140.302 E55.80534
G1 X87.481 Y140.302 E56.40742
G1 X87.303 Y140.182 E56.41779
G1 X87.28 Y140.082 E56.42274
G1 X87.28 Y138.844 E56.48253
G1 X87.342 Y138.69 E56.49055
G1 X87.462 Y138.627 E56.49709
G1 X87.5 Y138.624 E56.49893
G1 X99.948 Y138.624 E57.10009
G1 X100.116 Y138.701 E57.10902
G1 X100.168 Y138.844 E57.11637
G0 F3000 X100.718 Y138.844
G0 X100.718 Y140.733
G0 X99.948 Y140.733
;TYPE:WALL-INNER
G1 F312.8 X98.162 Y140.733 E57.19909
G1 X96.376 Y140.733 E57.28181
G1 F312.1 X94.59 Y140.733 E57.36473
G1 F311.3 X92.804 Y140.733 E57.44785
G1 X91.018 Y140.733 E57.53097
G1 F310.6 X89.232 Y140.733 E57.61428
G1 X87.446 Y140.733 E57.69759
G0 F3000 X86.73 Y140.733
G0 X86.73 Y158.082
G0 X87.481 Y158.082
;TYPE:WALL-OUTER
G1 F300 X87.303 Y157.962 E57.70796
G1 X87.28 Y157.862 E57.71291
G1 X87.28 Y156.624 E57.7727
G1 X87.345 Y156.466 E57.78095
G1 X87.5 Y156.404 E57.78901
G1 X99.948 Y156.404 E58.39017
G1 X100.119 Y156.484 E58.39929
G1 X100.168 Y156.624 E58.40645
G1 X100.168 Y157.862 E58.46624
G1 X100.166 Y157.892 E58.46769
G1 X100.119 Y158.002 E58.47347
G1 X99.948 Y158.082 E58.48259
G1 X87.481 Y158.082 E59.08467
G0 F3000 X86.73 Y158.082
G0 X86.73 Y160.622
G0 X87.481 Y160.622
G1 F300 X87.303 Y160.502 E59.09503
G1 X87.28 Y160.402 E59.09999
G1 X87.28 Y159.164 E59.15978
G1 X87.345 Y159.006 E59.16803
G1 X87.5 Y158.944 E59.17609
G1 X99.948 Y158.944 E59.77725
G1 X100.119 Y159.024 E59.78637
G1 X100.168 Y159.164 E59.79353
G1 X100.168 Y160.402 E59.85332
G1 X100.119 Y160.542 E59.86048
G1 X99.948 Y160.622 E59.8696
G1 X87.481 Y160.622 E60.47168
G0 F3000 X86.73 Y160.622
G0 X86.73 Y158.513
G0 X87.444 Y158.513
;TYPE:WALL-INNER
G1 F310.6 X89.23 Y158.513 E60.55499
G1 X91.016 Y158.513 E60.6383
G1 F311.3 X92.802 Y158.513 E60.72142
G1 X94.588 Y158.513 E60.80453
G1 F312.1 X96.374 Y158.513 E60.88745
G1 F312.8 X98.16 Y158.513 E60.97018
G1 X99.946 Y158.513 E61.0529
G0 F3000 X100.718 Y158.513
G0 X100.718 Y161.564
G0 X100.119 Y161.564
;TYPE:WALL-OUTER
G1 F300 X100.168 Y161.704 E61.06006
G1 X100.168 Y162.942 E61.11985
G1 X100.119 Y163.082 E61.12702
G1 X99.948 Y163.162 E61.13613
G1 X87.5 Y163.162 E61.73729
G1 X87.345 Y163.1 E61.74535
G1 X87.28 Y162.942 E61.75361
G1 X87.28 Y161.704 E61.81339
G1 X87.345 Y161.546 E61.82164
G1 X87.5 Y161.484 E61.82971
G1 X99.948 Y161.484 E62.43087
G1 X100.119 Y161.564 E62.43998
G0 F3000 X99.948 Y161.053
;TYPE:WALL-INNER
G1 F312.8 X98.162 Y161.053 E62.52271
G1 X96.376 Y161.053 E62.60543
G1 F312.1 X94.59 Y161.053 E62.68835
G1 F311.3 X92.804 Y161.053 E62.77147
G1 X91.018 Y161.053 E62.85458
G1 F310.6 X89.232 Y161.053 E62.9379
G1 X87.446 Y161.053 E63.02121
G0 F3000 X86.73 Y161.053
G0 X86.73 Y164.244
G0 X87.28 Y164.244
;TYPE:WALL-OUTER
G1 F300 X87.345 Y164.086 E63.02946
G1 X87.5 Y164.024 E63.03752
G1 X99.948 Y164.024 E63.63868
G1 X100.119 Y164.104 E63.6478
G1 X100.168 Y164.244 E63.65496
G1 X100.168 Y165.482 E63.71475
G1 X100.119 Y165.622 E63.72191
G1 X99.948 Y165.702 E63.73103
G1 X87.481 Y165.702 E64.33311
G1 X87.303 Y165.582 E64.34348
G1 X87.28 Y165.482 E64.34843
G1 X87.28 Y164.244 E64.40822
G0 F3000 X87.444 Y163.593
;TYPE:WALL-INNER
G1 F310.6 X89.23 Y163.593 E64.49153
G1 X91.016 Y163.593 E64.57484
G1 F311.3 X92.802 Y163.593 E64.65796
G1 X94.588 Y163.593 E64.74108
G1 F312.1 X96.374 Y163.593 E64.824
G1 F312.8 X98.16 Y163.593 E64.90672
G1 X99.946 Y163.593 E64.98944
G0 F3000 X100.718 Y163.593
G0 X100.718 Y169.104
G0 X99.948 Y169.104
;TYPE:WALL-OUTER
G1 F300 X100.119 Y169.184 E64.99856
G1 X100.168 Y169.324 E65.00572
G1 X100.168 Y170.562 E65.06551
G1 X100.119 Y170.702 E65.07267
G1 X99.948 Y170.782 E65.08179
G1 X87.481 Y170.782 E65.68387
G1 X87.303 Y170.662 E65.69424
G1 X87.28 Y170.562 E65.69919
G1 X87.28 Y169.324 E65.75898
G1 X87.345 Y169.166 E65.76723
G1 X87.5 Y169.104 E65.77529
G1 X99.948 Y169.104 E66.37645
G0 F3000 X100.718 Y169.104
G0 X100.718 Y173.242
G0 X100.119 Y173.242
G1 F300 X99.948 Y173.322 E66.38557
G1 X87.481 Y173.322 E66.98765
G1 X87.303 Y173.202 E66.99802
G1 X87.28 Y173.102 E67.00297
G1 X87.28 Y171.864 E67.06276
G1 X87.345 Y171.706 E67.07101
G1 X87.5 Y171.644 E67.07907
G1 X99.948 Y171.644 E67.68023
G1 X100.119 Y171.724 E67.68935
G1 X100.168 Y171.864 E67.69651
G1 X100.168 Y173.102 E67.7563
G1 X100.166 Y173.138 E67.75804
G1 X100.119 Y173.242 E67.76355
G0 F3000 X100.718 Y173.242
G0 X100.718 Y171.213
G0 X99.948 Y171.213
;TYPE:WALL-INNER
G1 F312.8 X98.162 Y171.213 E67.84628
G1 X96.376 Y171.213 E67.929
G1 F312.1 X94.59 Y171.213 E68.01192
G1 F311.3 X92.804 Y171.213 E68.09504
G1 X91.018 Y171.213 E68.17815
G1 F310.6 X89.232 Y171.213 E68.26147
G1 X87.446 Y171.213 E68.34478
G0 F3000 X86.73 Y171.213
G0 X86.73 Y168.122
G0 X87.303 Y168.122
;TYPE:WALL-OUTER
G1 F300 X87.291 Y168.093 E68.34629
G1 X87.28 Y168.022 E68.34976
G1 X87.28 Y166.784 E68.40955
G1 X87.345 Y166.626 E68.4178
G1 X87.5 Y166.564 E68.42586
G1 X99.948 Y166.564 E69.02702
G1 X100.119 Y166.644 E69.03614
G1 X100.168 Y166.784 E69.0433
G1 X100.168 Y168.022 E69.10309
G1 X100.119 Y168.162 E69.11026
G1 X99.948 Y168.242 E69.11937
G1 X87.481 Y168.242 E69.72145
G1 X87.303 Y168.122 E69.73182
G0 F3000 X87.444 Y168.673
;TYPE:WALL-INNER
G1 F310.6 X89.23 Y168.673 E69.81513
G1 X91.016 Y168.673 E69.89844
G1 F311.3 X92.802 Y168.673 E69.98156
G1 X94.588 Y168.673 E70.06467
G1 F312.1 X96.374 Y168.673 E70.14759
G1 F312.8 X98.16 Y168.673 E70.23032
G1 X99.946 Y168.673 E70.31304
G0 F3000 X100.718 Y168.673
G0 X100.718 Y166.133
G0 X99.948 Y166.133
G1 F312.8 X98.162 Y166.133 E70.39577
G1 X96.376 Y166.133 E70.47849
G1 F312.1 X94.59 Y166.133 E70.56141
G1 F311.3 X92.804 Y166.133 E70.64453
G1 X91.018 Y166.133 E70.72764
G1 F310.6 X89.232 Y166.133 E70.81096
G1 X87.446 Y166.133 E70.89427
G0 F3000 X86.73 Y166.133
G0 X86.73 Y174.404
G0 X87.28 Y174.404
;TYPE:WALL-OUTER
G1 F300 X87.345 Y174.246 E70.90252
G1 X87.5 Y174.184 E70.91058
G1 X99.948 Y174.184 E71.51174
G1 X100.119 Y174.264 E71.52086
G1 X100.168 Y174.404 E71.52802
G1 X100.168 Y175.642 E71.58781
G1 X100.152 Y175.726 E71.59194
G1 X100.119 Y175.782 E71.59508
G1 X99.948 Y175.862 E71.60419
G1 X87.481 Y175.862 E72.20627
G1 X87.303 Y175.742 E72.21664
G1 X87.28 Y175.642 E72.2216
G1 X87.28 Y174.404 E72.28138
G0 F3000 X87.444 Y173.753
;TYPE:WALL-INNER
G1 F310.6 X89.23 Y173.753 E72.3647
G1 X91.016 Y173.753 E72.44801
G1 F311.3 X92.802 Y173.753 E72.53112
G1 X94.588 Y173.753 E72.61424
G1 F312.1 X96.374 Y173.753 E72.69716
G1 F312.8 X98.16 Y173.753 E72.77988
G1 X99.946 Y173.753 E72.86261
G0 F3000 X100.718 Y173.753
G0 X100.718 Y181.804
G0 X99.948 Y181.804
;TYPE:WALL-OUTER
